X:1
T: The London Lasses
P:Ryan's version
R:Reel
Q: 232
K:G
M:4/4
L:1/8
a|fB df fB df|eA ((3cBA) eA ((3cBA) |fB df fB df|ec Ac dB B2|
fB df fB df|eA ((3cBA) eA ((3cBA) |dc dB cB Ad|ec Ac dB B2|
|:d2 fd ad fd|c2 ec Ac ec|d2 fd ad fd|ec Ac dB B2|
d2 fd ad fd|c2 ec Ac ec|de fg ab af|ec Ac dB B2:|
fB df fB df|eA ((3cBA) eA ((3cBA) |fB df fB df|ec Ac dB B2|
fB df fB df|eA ((3cBA) eA ((3cBA) |dc dB cB Ad|ec Ac dB B2||
